svg/200/rounded/text_select_end-fill.svg

<svg xmlns="http://www.w3.org/2000/svg" width="48" height="48" viewBox="0 -960 960 960"><path d="M479.811-160q-8.58 0-14.196-5.804Q460-171.608 460-180.189q0-8.58 5.804-14.195Q471.609-200 480.189-200t14.196 5.804Q500-188.391 500-179.811t-5.804 14.196Q488.391-160 479.811-160Zm-149.602 0q-9.363 0-14.594-5.804t-5.231-14.385q0-8.58 5.407-14.195Q321.197-200 330.175-200q8.979 0 14.594 5.804 5.616 5.805 5.616 14.385t-5.801 14.196q-5.8 5.615-14.375 5.615Zm-150.398 0q-8.58 0-14.196-5.804Q160-171.608 160-180.189q0-8.58 5.804-14.195Q171.608-200 180.189-200q8.58 0 14.195 5.804Q200-188.391 200-179.811t-5.804 14.196Q188.391-160 179.811-160Zm0-150.384q-8.58 0-14.196-5.407Q160-321.197 160-330.175q0-8.979 5.804-14.594 5.804-5.616 14.385-5.616 8.58 0 14.195 5.801 5.616 5.8 5.616 14.375 0 9.363-5.804 14.594-5.805 5.231-14.385 5.231Zm0-149.616q-8.58 0-14.196-5.804Q160-471.609 160-480.189t5.804-14.196Q171.608-500 180.189-500q8.58 0 14.195 5.804Q200-488.391 200-479.811t-5.804 14.196Q188.391-460 179.811-460Zm0-150.385q-8.58 0-14.196-5.406Q160-621.197 160-630.176q0-8.978 5.804-14.593 5.804-5.616 14.385-5.616 8.58 0 14.195 5.801 5.616 5.8 5.616 14.375 0 9.363-5.804 14.594-5.805 5.23-14.385 5.23Zm300-149.615q-8.58 0-14.196-5.804Q460-771.609 460-780.189t5.804-14.196Q471.609-800 480.189-800t14.196 5.804Q500-788.392 500-779.811q0 8.58-5.804 14.195Q488.391-760 479.811-760Zm-149.602 0q-9.363 0-14.594-5.804-5.231-5.805-5.231-14.385t5.407-14.196Q321.197-800 330.175-800q8.979 0 14.594 5.804 5.616 5.804 5.616 14.385 0 8.58-5.801 14.195-5.8 5.616-14.375 5.616Zm-150.398 0q-8.58 0-14.196-5.804Q160-771.609 160-780.189t5.804-14.196Q171.608-800 180.189-800q8.58 0 14.195 5.804Q200-788.392 200-779.811q0 8.58-5.804 14.195Q188.391-760 179.811-760Zm442.881 600q-6.538 0-10.961-4.485t-4.423-11.115q0-6.631 4.423-10.9t10.961-4.269h65.077v-578.462h-65.077q-6.538 0-10.961-4.485t-4.423-11.115q0-6.631 4.423-10.9T622.692-800h161.924q6.538 0 10.961 4.485T800-784.4q0 6.631-4.423 10.9t-10.961 4.269h-66.077v578.462h66.077q6.538 0 10.961 4.485T800-175.169q0 6.631-4.423 10.9T784.616-160H622.692Z"/></svg>

<svg xmlns="http://www.w3.org/2000/svg" width="48" height="48" viewBox="0 -960 960 960"><path d="M479.81-160q-8.58 0-14.19-5.8-5.62-5.81-5.62-14.39 0-8.58 5.8-14.19 5.81-5.62 14.39-5.62 8.58 0 14.19 5.8 5.62 5.81 5.62 14.39 0 8.58-5.8 14.19-5.81 5.62-14.39 5.62Zm-149.6 0q-9.36 0-14.59-5.8-5.24-5.81-5.24-14.39 0-8.58 5.41-14.19 5.41-5.62 14.39-5.62 8.97 0 14.59 5.8 5.61 5.81 5.61 14.39 0 8.58-5.8 14.19-5.8 5.62-14.37 5.62Zm-150.4 0q-8.58 0-14.19-5.8-5.62-5.81-5.62-14.39 0-8.58 5.8-14.19 5.81-5.62 14.39-5.62 8.58 0 14.19 5.8 5.62 5.81 5.62 14.39 0 8.58-5.8 14.19-5.81 5.62-14.39 5.62Zm0-150.38q-8.58 0-14.19-5.41-5.62-5.41-5.62-14.39 0-8.97 5.8-14.59 5.81-5.61 14.39-5.61 8.58 0 14.19 5.8 5.62 5.8 5.62 14.37 0 9.36-5.8 14.59-5.81 5.24-14.39 5.24Zm0-149.62q-8.58 0-14.19-5.8-5.62-5.81-5.62-14.39 0-8.58 5.8-14.19 5.81-5.62 14.39-5.62 8.58 0 14.19 5.8 5.62 5.81 5.62 14.39 0 8.58-5.8 14.19-5.81 5.62-14.39 5.62Zm0-150.38q-8.58 0-14.19-5.41-5.62-5.41-5.62-14.39 0-8.97 5.8-14.59 5.81-5.61 14.39-5.61 8.58 0 14.19 5.8 5.62 5.8 5.62 14.37 0 9.36-5.8 14.59-5.81 5.24-14.39 5.24Zm300-149.62q-8.58 0-14.19-5.8-5.62-5.81-5.62-14.39 0-8.58 5.8-14.19 5.81-5.62 14.39-5.62 8.58 0 14.19 5.8 5.62 5.81 5.62 14.39 0 8.58-5.8 14.19-5.81 5.62-14.39 5.62Zm-149.6 0q-9.36 0-14.59-5.8-5.24-5.81-5.24-14.39 0-8.58 5.41-14.19 5.41-5.62 14.39-5.62 8.97 0 14.59 5.8 5.61 5.81 5.61 14.39 0 8.58-5.8 14.19-5.8 5.62-14.37 5.62Zm-150.4 0q-8.58 0-14.19-5.8-5.62-5.81-5.62-14.39 0-8.58 5.8-14.19 5.81-5.62 14.39-5.62 8.58 0 14.19 5.8 5.62 5.81 5.62 14.39 0 8.58-5.8 14.19-5.81 5.62-14.39 5.62Zm442.88 600q-6.54 0-10.96-4.48-4.42-4.49-4.42-11.12 0-6.63 4.42-10.9 4.42-4.27 10.96-4.27h65.08v-578.46h-65.08q-6.54 0-10.96-4.49-4.42-4.48-4.42-11.11 0-6.63 4.42-10.9 4.42-4.27 10.96-4.27h161.93q6.53 0 10.96 4.48 4.42 4.49 4.42 11.12 0 6.63-4.42 10.9-4.43 4.27-10.96 4.27h-66.08v578.46h66.08q6.53 0 10.96 4.49 4.42 4.48 4.42 11.11 0 6.63-4.42 10.9-4.43 4.27-10.96 4.27H622.69Z"/></svg>
